X:1
T:Tetworth, 87.887
T:Tetworth, 87.887
T:George Mursell Garrett (1834-1897)
T:Public Domain Courtesy of the Cyber Hymnal™
C:George Mursell Garrett (1834-1897)
Z:Public Domain
Z:Courtesy of the Cyber Hymnal™
%%score ( 1 2 ) ( 3 4 )
L:1/8
Q:1/4=110
M:4/4
K:Bb
V:1 treble 
V:2 treble 
V:3 bass 
V:4 bass 
V:1
 D2 [DG]2 [EG]2 [FB]2 | [EA]2 G2 [DG]2 [D^F]2 | [DG]2 [EF]2 [DF]2 [Dd]2 | [Gc]2 c2 [DB]4 | %4
 [Dd]2 [GB]2 [GA]2 [FA]2 | [EG]2 [Gc]2 [Gc]2 [GB]2 | B2 (AG) [D^F]2 (Gd) | [Ec]2 [DB]2 [DB]2 A2 | %8
 [B,G]2 [EG]2 d3 [EG] | [DG]2 [C^F]2 [B,G]4 |] %10
V:2
 D2 x6 | x2 (B,C) x4 | x8 | x2 (FE) x4 | x8 | x8 | (G^F) =E2 x D2 x | x6 (DC) | x4 (C2 B,) x | %9
 x8 |] %10
V:3
 [G,B,]2 [G,B,]2 [E,B,]2 [B,,D]2 | [C,C]2 [E,G,]2 [D,A,]2 [D,A,]2 | [G,B,]2 [A,C]2 B,2 B,2 | %3
 (B,G,) [F,A,]2 [B,,B,]4 | B,2 D2 [D,D]2 (DC) | B,2 E2 [G,D]2 [G,D]2 | %6
 [G,,D]2 [A,,^C]2 A,2 [B,,G,]2 | (G,^F,) G,2 [D,G,]2 [D,F,]2 | %8
 [E,G,]2 [C,G,]2 [A,,^F,]2 ([B,,G,][C,A,]) | [D,A,]2 (A,D) [G,,D]4 |] %10
V:4
 x8 | x8 | x4 (B,A,) (G,F,) | E,2 x6 | (B,,A,,) (B,,C,) x D,2 x | (E,D,) (E,F,) x4 | %6
 x4 (D,=C,) x2 | A,,2 (B,,C,) x4 | x8 | x2 D,2 x4 |] %10

